X:1
T:Lux aeterna / Mulieris bonae beatus vir
T:LUX AETERNA (aus der Missa pro defunctis) 
T:Der Text   Mulieris bonae   wurde vom K. Domchor bei der Weihnachtsausstellung (*) gesungen; man bediene sich für ihn der kleinen Noten. 
T:Sammlung MUSICA SACRA, 1856 - No.2.
T:(*) Weihnachtsausstellung vom "Verein berliner Künstler zur Unterstützung seiner hülfsbedürftigen Mitglieder" 1844, 1845 oder 1846. Quellen: Das wohlthätige Berlin. Geschichtlich-statistische Nachrichten über die Wohlthätigkeits-Uebung Berlin's, S. 137;  Neue Berliner Musikzeitung vom 20. Januar 1847, S. 34
T:Nicolo JOMMELLI
T:MULIERIS BONAE BEATUS VIR*)
T:*) Der Text "Mulieris bonae" wurde vom Königl. Domchor in Berlin bei der Weihnachtsausstellung gesungen; man bediene sich für ihn der kleinen Noten.
T:© Edition Monika Feinen, Creative Commons Attribution-NonCommercial-ShareAlike 4.0
T:© Edition Monika Feinen, Creative Commons Attribution-NonCommercial-ShareAlike 4.0
T:© Edition Monika Feinen, Creative Commons Attribution-NonCommercial-ShareAlike 4.0
T:© Edition Monika Feinen, Creative Commons Attribution-NonCommercial-ShareAlike 4.0
T:© Edition Monika Feinen, Creative Commons Attribution-NonCommercial-ShareAlike 4.0
T:© Edition Monika Feinen, Creative Commons Attribution-NonCommercial-ShareAlike 4.0
T:© Edition Monika Feinen, Creative Commons Attribution-NonCommercial-ShareAlike 4.0
C:Nicolo Jommelli
Z:© Edition Monika Feinen, Creative Commons Attribution-NonCommercial-ShareAlike 4.0
%%score [ ( 1 2 ) ( 3 4 ) ( 5 6 7 ) ( 8 9 ) ]
L:1/8
Q:1/4=160
M:2/2
K:Eb
V:1 treble nm="CANTO."
V:2 treble 
V:3 treble nm="ALTO."
V:4 treble 
V:5 treble-8 nm="TENORE."
V:6 treble-8 
V:7 treble-8 
V:8 bass nm="BASSO."
V:9 bass 
V:1
"^Vivace."!f! e8 | d8 | c8 | B8 | A4 A2 A2 | G4 G4 | F6 F2 |!<(! E2 F2 G2!<)! =A2 | B2 c2 d2 e2 | %9
w: Lux|ae-|ter-|na|lu- ce- at|e- is,|Do- mi-|ne, cum sanc- tis|tu- is in ae-|
w: |||bo-|nae * *||vir, be-|a- * * *||
 f4 F4 | z2!<(! G2 =A2 B2!<)! | c2 d2 e2 f2 | g4 G4 | F2 F2 B4- | B4 =A4 | B4 z4 | G8 | F8 | E8 | %19
w: ter- num,|cum sanc- tis|tu- is in ae-|ter- num,|qui- a pi-|* us|es,|lux|ae-|ter-|
w: * tus,|be- a- *||* tus|vir, _ be-|a- tus|vir,||||
 D2 E2 F2 G2 | A2 B2 c2 d2 | e2 e2 B2 B2 | A6 A2 | G2 A2 B2 c2 | F4 F4 | z2 F2 G2 =A2 | %26
w: na cum sanc- tis|tu- is in ae-|ter- num, qui- a|pi- us|es, cum sanc- tis|tu- is,|cum sanc- tis|
w: bo- * nae be-|a- * * *|* * tus *|vir, be-|a- * * *|tus, *|be- * *|
 B2 c2 d2 e2 | f4 F4 | z8 | z8 | e8 | d8 | c8 | B8 | z8 | z8 | e8 | d8 | c8 | B8 | A4 A2 A2 | G8 | %42
w: tu- is in ae|ter- num,|||lux|ae-|ter-|na,|||lux|ae-|ter|na|lu- ce- at|e-|
w: |a- tus,|||be-|a-|tus|vir,|||be-|a-|tus|vir,|mu- li- e-|ris|
 F2 E2 F2 G2 | A2 B2 c2 d2 | e4 E4- | E2 F2 G2 A2 | B2 c2 d2 e2 | f4 F4- | F2 G2 A2 B2 | %49
w: is, cum sanc- tis|tu- is in ae-|ter- num,|_ cum sanc- tis|tu- is in ae-|ter- num,|_ cum sanc- tis|
w: ||* be-|a- * * *||tus, be-|a- * * *|
 c2 d2 e2 f2 | g4!ff! e4- | e4 e4- | e4 e4 | d2 d2 e2 e2 | d4 e4- | e4 d4 || %56
w: tu- is in ae-|ter- num,|_ qui-|* a|pi- us, qui- a|pi- *|* us|
w: ||* tus,|||||
[M:4/4][Q:1/4=74]"^Larghetto." e2 z2 z4 |!pp! E6 E2 | E6 E2 | E8- | E8 | E8 |!<(! G6 G2!<)! | %63
w: es.|Re- qui-|em ae-|ter-||nam|do- na|
w: vir:|nu- me-|rus an-|no-||rum,|nu- me-|
 G4 G4 | G4 G4 |!f! A4 A4 |!>(! G4 F4!>)! |!p! F6 F2 | G4 z4 |"^SOLO" e8- | e4 d2 fd | c3 c c4 | %72
w: e- is,|do- na|e- is,|e- is,|Do- mi-|ne,|et|_ lux per- *|pe- tu- a|
w: rus e-|nim an-|no- rum|lo- rum|du- *|plez,|be-|a- * * *|* tus vir,|
"^TUTTI." c6 c2 | B4 z4 |!>(! c6 c2!>)! | B4 z4 |!pp! B6 B2 | B4 B4- | B4 A2 A2 | A4 G4 | F8 | %81
w: lu- ce-|at,|lu- ce-|at,|lu- ce-|at, lu-|* ce- at|e- *||
w: nu- me-|rus|e- *|nim|||||du-|
 G4 z4 |] %82
w: is.|
w: plez.|
V:2
 x8 | d6 d2 | x8 | x8 | x4 A4 | x4 x4 | x8 | x8 | x8 | x8 | x8 | x8 | x8 | x8 | x8 | x8 | x8 | %17
w: |||||||||||||||||
w: |li- e-|||be-|||||||||||||
 F6 F2 | x8 | x8 | x8 | e4 B4 | x8 | x8 | F8 | x8 | x8 | x8 | x8 | x8 | x8 | x8 | x8 | x8 | x8 | %35
w: ||||||||||||||||||
w: li- e-||||||||||||||||||
 x8 | x8 | x8 | x8 | x8 | x8 | G6 G2 | x2 x6 | x8 | x4 x4 | x8 | x8 | x8 | x8 | x8 | x8 | x8 | e8 | %53
w: ||||||||||||||||||
w: ||||||* be-|||||||||||mu-|
 d2 d2 e4 | x4 e2 e2 | x4 x4 ||[M:4/4] x8 | x8 | x8 | x8 | x8 | x8 | x8 | x8 | x8 | x4 A2 A2 | x8 | %67
w: ||||||||||||||
w: li- e- ris|nae be-|||||||||||* il \-||
 F8 | x8 | x8 | x8 | x8 | x8 | x8 | c8 | x8 | B8 | B8 | x4 A4 | x4 x4 | x8 | !fermata!G8 |] %82
w: |||||||||||||||
w: |||||||||an-|no-|il-||||
V:3
 z8 | z8 | z8 | z8 | z8 | z8 | z8 | z8 |!f! B8 | =A8 | G8 | F8 | E4 E2 E2 | D4 D4 | C6 C2 | %15
w: ||||||||Lux|ae-|ter-|na|lu- ce- at|e- is,|Do- mi-|
w: |||||||||||bo-|nae * *||vir, be-|
 B,2!<(! B,2 C2 D2!<)! | E2 F2 G2 A2 | B4 B,4 | z2!<(! C2 D2 E2!<)! | F2 G2 A2 B2 | c4 C4 | %21
w: ne, cum sanc- tis|tu- is in ae|ter- num,|cum sanc- tis|tu- is in ae-|ter- num,|
w: bo- * nae be-|a- * * *|* tus,|be- a- *|||
 B,2 B,2 E4- | E4 D4 | E4 z4 | D8 | C8 | B,8 | =A,2 B,2 C2 D2 | E2 F2 G2 =A2 | B4 F4 | z8 | B8 | %32
w: qui- a pi-|* us|es,|lux|ae-|ter-|na cum sanc- tis|tu- is in ae-|ter- num,||lux|
w: tus, be- a-|* tus|vir,|be-|a-|tus,|be- a- * *||* tus,||be-|
 _A8 | G4 G4 | F4 F2 F2 | F4 F4 | z2 E2 F2 G2 | A2 B2 c2 d2 | e4 E4 | z2 B,2 C2 D2 | E2 F2 G2 A2 | %41
w: ae-|ter- na|lu- ce- at|e- is|cum sanc- tis|tu- is in ae-|ter- num,|cum sanc- tis|tu- is in ae-|
w: a-|tus, mu-|li- e- ris|bo- nae|be- a- *||* tus,|be- a- *||
 B4 B,4 | z8 | c8- | c8 | B8- | B8 | A8- | A8 | G4 z4 | z4!ff! G2 G2 | F8 | F8 | F4 G4 | %54
w: ter- num,||lux|_|ae-||ter-||na,|qui- a|pi-|us,|qui- a|
w: * tus,||be-||a-||tus|_|vir,||a-|tus|vir, be-|
 F2 F2 G2 G2 | F6 F2 ||[M:4/4] G2 z2 z4 |!pp! B,6 B,2 | C6 C2 | (C8 | B,8) | B,8 |!<(! E6 E2!<)! | %63
w: pi- us, qui- a|pi- us|es.|Re- qui-|em ae-|ter-||nam|do- na|
w: |* tus|vir:|nu- me-|rus an-|no-||rum,|nu- me-|
 F4 F4 | E4 C4 | F4 F4 | E4 E4 |!p! D6 D2 | E4 B4- | B4 =A2 cA | F3 F F4 | F8 |"^TUTTI." F8 | %73
w: e- is,|do- na|e- is,|e- is,|Do- mi-|ne, et|_ lux per- *|pe- tu- a,|lux|per-|
w: rus e-|nim an-|no- rum|lo- rum|du- *|plez, *|||||
!<(! F6 F2!<)! |!>(! F8!>)! | F8 |!pp! F8- | F2 E2 E4 | E4 E2 E2 | D4 E4- | E4 D4 | E4 z4 |] %82
w: pe- tu-|a,|per-|pe-|* tu- a|lu- ce- at|e- *||is.|
w: |e-|nim|an-|no- * rum|_ _ _||du- *|plez.|
V:4
 x8 | x8 | x8 | x8 | x8 | x8 | x8 | x8 | x8 | =A6 A2 | x8 | x8 | x4 E4 | x4 x4 | x8 | x8 | x8 | %17
w: |||||||||||||||||
w: |||||||||li- e-|||be-|||||
 x8 | x8 | x8 | x8 | x8 | x8 | x8 | x8 | x8 | x8 | x8 | x8 | x8 | x8 | x8 | x8 | x8 | x8 | x8 | %36
w: |||||||||||||||||||
w: |||||||||||||||||||
 x8 | x8 | x8 | x8 | x8 | x8 | x8 | x8 | x8 | x8 | x8 | x8 | x8 | x8 | x4 G4 | x8 | x8 | x8 | %54
w: ||||||||||||||||||
w: ||||||||||||||be-||||
 F4 G4 | x8 ||[M:4/4] x8 | x8 | x8 | x8 | x8 | x8 | x8 | x8 | x8 | x4 F2 F2 | x8 | D8 | %68
w: ||||||||||||||
w: |||||||||||* il \-|||
 E2"^SOLO" E2 x4 | x8 | x3 x F2 F2 | F6 F2 | F3 F F2 F2 | x6 F2 | x8 | x8 | x8 | x8 | x4 E4 | %79
w: |||||||||||
w: * be-||vir, be-|a- tus|nu- me- rus an-|rum,|||||il-|
 x4 x4 | x8 | !fermata!E8 |] %82
w: |||
w: |||
V:5
 z8 | z8 | z8 | z8 | z8 | z8 | z8 | z8 | z8 | z8 | z8 | z8 | z8 | z8 | z8 | z8 |!f! e8 | d8 | c8 | %19
w: ||||||||||||||||Lux|ae-|ter-|
w: |||||||||||||||||||
 B8 | A4 A2 A2 | G4 G4 | F6 F2 |!<(! E2 F2 G2 =A2!<)! | B2 c2 d2 e2 | f4 F4 | z2 G2 =A2 B2 | %27
w: na|lu- ce- at|e- is,|Do- mi-|ne, cum sanc- tis|tu- is in ae-|ter- num,|cum sanc- tis|
w: bo-|nae * *|a- tus|vir, be-|a- * * *||* tus,|be- a- *|
 c2 d2 e2 f2 | g4 G4 | F2 F2 B4- | B4 =A4 | F8 | z8 | e8 | d8 | c8 | B8 | A4 A2 A2 | G4 G4 | F8 | %40
w: tu- is in ae-|ter- num,|qui- a pi-|* us|es,||lux|ae-|ter-|na|lu- ce- at|e- is,|Do-|
w: |* tus,|be- * a-|* tus|vir,||be-|a-|tus|vir,|mu- li- e-|ris *|bo-|
 E6 E2 | D2 E2 F2 G2 | A2 B2 c2 d2 | e4 E4- | E2 F2 G2 A2 | B2 c2 d2 e2 | f4 F4- | F2 G2 A2 B2 | %48
w: * mi-|ne, cum sanc- tis|tu- is in ae-|ter- num,|_ cum sanc- tis|tu- is in ae-|ter- num,|_ cum sanc- tis|
w: nae be-|a- * * *||tus, be-|a- * * *||tus, be-|a- * * *|
 c2 d2 e2 f2 | g8 |!ff! e8 | c8 | c8 | B2 B2 B2 B2 | B8- | B4 B4 ||[M:4/4] B2 z4 z2 |!pp! G6 G2 | %58
w: tu- is in ae-|ter-|num,|qui-|a|pi- us, qui- a|pi-|* us|es.|Re- qui-|
w: ||tus,|a-|tus|vir, * be- *|a-|* tus|vir:|nu- me-|
 G6 G2 | F8- | F8 | G8 |!<(! G4 c4!<)! | d4 d4 | c4 e4 | d4 d4 | B4 c4 |!p! B6 B2 | B4 z4 | z8 | %70
w: em ae-|ter-||nam|do- na|e- is,|do- na|e- is,|e- is,|Do- mi-|ne,||
w: rus an-|no-||rum,|nu- me-|rus e-|nim an-|no- rum|lo- rum|du- *|plez,||
 z8 | z8 |"^TUTTI." e6 e2 | d4 z4 |!>(! e6 e2!>)! | d4 z4 |!pp! A6 A2 | G8 | c4 c2 c2 | B8- | B8 | %81
w: ||lu- ce-|at,|lu- ce-|at,|lu- ce-|at,|lu- ce- at|e-||
w: ||nu- me-|rus|e- *|nim|an- *|no-|rum * *||du-|
 B4 z4 |] %82
w: is.|
w: plez.|
V:6
 x8 | x8 | x8 | x8 | x8 | x8 | x8 | x8 | x8 | x8 | x8 | x8 | x8 | x8 | x8 | x8 | x8 | d6 d2 | x8 | %19
w: |||||||||||||||||||
w: |||||||||||||||||li- e-||
 x8 | A6 A2 | x8 | x8 | x8 | x8 | x8 | x8 | x8 | x8 | F4 x4 | x8 | x8 | x8 | x8 | x8 | x8 | x8 | %37
w: ||||||||||||||||||
w: |* be-|||||||||||||||||
 x8 | G8 | x8 | x8 | x8 | x8 | x8 | x8 | x8 | x8 | x8 | x8 | x8 | e6 e2 | x8 | x8 | B4 B4 | x8 | %55
w: ||||||||||||||||||
w: |||||||||||||* be-|||||
 x8 ||[M:4/4] x8 | x8 | x8 | x8 | x8 | x8 | x8 | x8 | x8 | x4 d2 d2 | x8 | B8 | x8 | x8 | x8 | x8 | %72
w: |||||||||||||||||
w: ||||||||||* il \-|||||||
 x8 | x8 | x8 | x8 | A8 | x8 | x4 c4 | B4 B4 | B8 | !fermata![GB]8 |] %82
w: ||||||||||
w: ||||||il-|lo- rum|||
V:7
 x8 | x8 | x8 | x8 | x8 | x8 | x8 | x8 | x8 | x8 | x8 | x8 | x8 | x8 | x8 | x8 | x8 | x8 | x8 | %19
 x8 | x8 | x8 | x8 | x8 | x8 | x8 | x8 | x8 | x8 | x8 | x8 | x8 | x8 | x8 | x8 | x8 | x8 | x8 | %38
 x8 | x8 | x8 | x8 | x8 | x8 | x8 | x8 | x8 | x8 | x8 | x8 | x8 | x8 | x8 | x8 | x8 | x8 || %56
[M:4/4] x8 | x8 | x8 | x8 | x8 | x8 | x8 | x8 | x8 | x8 | x8 | x8 | x8 | x8 | x8 | x8 | x8 | x8 | %74
 x8 | x8 | x8 | x8 | x8 | F4 G4 | A8 | x8 |] %82
V:8
 z8 | z8 | z8 | z8 | z8 | z8 | z8 | z8 | z8 | z8 | z8 | z8 | z8 | z8 | z8 | z8 | z8 | z8 | z8 | %19
w: |||||||||||||||||||
w: |||||||||||||||||||
 z8 | z8 | z8 | z8 | z8 |!f! B,8 | =A,8 | G,8 | F,8 | E,4 E,2 E,2 | D,4 D,4 | C,6 C,2 | %31
w: |||||Lux|ae-|ter-|na|lu- ce- at|e- is,|Do- mi-|
w: ||||||||bo-|nae * *||vir, be-|
 D,2 E,2 F,2 G,2 | _A,2 B,2 C2 D2 | E4 E,4 | B,8 | A,8 | G,8 | F,8 | E,4 E,2 E,2 | D,4 D,4 | %40
w: ne, cum sanc- tis|tu- is in ae-|ter- num,|lux|ae-|ter-|na|lu- ce- at|e- is,|
w: a- * * *||* tus,|be-|a-|tus|vir,|mu- li- e-|ris bo-|
 C,6 C,2 | B,,2 C,2 D,2 E,2 | F,2 G,2 A,2 B,2 | C4 C,4- | C,2 D,2 E,2 F,2 | G,2 A,2 B,2 C2 | %46
w: Do- mi-|ne, cum sanc- tis|tu- is in ae-|ter- num,|_ cum sanc- tis|tu- is in ae-|
w: nae be-|a- * * *||tus, be-|a- * * *||
 D4 D,4- | D,2 E,2 F,2 G,2 | A,2 B,2 C2 D2 | E8 |!ff! C8 | A,8 | =A,8 | B,2 B,2 G,2 E,2 | B,,8- | %55
w: ter- num,|_ cum sanc- tis|tu- is in ae-|ter-|num,|qui-|a|pi- us, qui- a|pi-|
w: tus, be-|a- * * *|||tus,|a-|tus|vir, * be- *|a-|
 B,,4 B,,4 ||[M:4/4] E,2 z4 z2 |!pp! E,6 E,2 | C,6 C,2 | (A,,8 | B,,8) | E,8 |!<(! C,6 C,2!<)! | %63
w: * us|es.|Re- qui-|em ae-|ter-||nam|do- na|
w: * tus|vir:|nu- me-|rus an-|no-||rum,|nu- me-|
 =B,,4 B,,4 | C,4 C,4 | _B,,4 B,,4 | E,4 A,,4 |!p! B,,6 B,,2 | E,4 z4 | z8 | z8 | z8 | %72
w: e- is,|do- na|e- is,|e- is,|Do- mi-|ne,||||
w: rus e-|nim an-|no- rum|lo- rum|du- *|plez,||||
"^TUTTI." =A,6 A,2 | B,4 z4 |!>(! A,6 A,2!>)! | B,4 z4 |!pp! D,6 D,2 | E,8 | A,,4 A,,2 A,,2 | %79
w: lu- ce-|at,|lu- ce-|at,|lu- ce-|at,|lu- ce- at|
w: nu- me-|rus|e- *|nim|an- *|no-|rum * *|
 B,,8- | B,,8 | E,4 z4 |] %82
w: e-||is.|
w: |du-|plez.|
V:9
 x8 | x8 | x8 | x8 | x8 | x8 | x8 | x8 | x8 | x8 | x8 | x8 | x8 | x8 | x8 | x8 | x8 | x8 | x8 | %19
w: |||||||||||||||||||
w: |||||||||||||||||||
 x8 | x8 | x8 | x8 | x8 | x8 | =A,6 A,2 | x8 | x8 | E,6 E,2 | x4 x4 | x8 | x8 | x8 | x8 | x8 | x8 | %36
w: |||||||||||||||||
w: ||||||li- e-|||* be-||||||||
 x8 | x8 | x8 | x8 | x8 | x8 | x8 | x8 | x8 | x8 | x8 | x8 | x8 | x8 | C6 C2 | x8 | x8 | B,4 x4 | %54
w: ||||||||||||||||||
w: ||||||||||||||* be-||||
 x8 | x8 ||[M:4/4] x8 | x8 | x8 | x8 | x8 | x8 | x8 | x8 | x8 | x4 B,,2 B,,2 | x8 | B,,8 | x8 | %69
w: |||||||||||||||
w: |||||||||||* il \-||||
 x8 | x8 | x8 | x8 | x8 | x8 | x8 | D,8 | x8 | x4 A,,4 | B,,4 B,,4 | x8 | !fermata![E,,E,]8 |] %82
w: |||||||||||||
w: |||||||||il-|lo- rum|||

